X:68
T: LIEB ANNA SASS AUF EINEM STEIN
N: E0042N
O: Europa, Mitteleuropa, Deutschland, Schleswig
R: erzaehlendes Volks - Lied, Ritter -, Raeuber - Sage, Kinder - Lied
M: 2/4
L: 1/8
K: C
G, | CCB,A, | A,G,G,2 |
A,F,F,2 | A,G,G,
G, | CCB,A, | A,G,G,2 |
A,2B,2 | C2z

@@@ Tune index: 3718
